imgs/mapper.svg

<svg height="97" viewBox="0 0 86 97" width="86" xmlns="http://www.w3.org/2000/svg"><g fill="none" fill-rule="evenodd" transform="translate(2 2)"><g stroke="#000" stroke-linecap="round" stroke-linejoin="round"><g stroke-width="4"><path d="m5 19v45.5h71.5v-45.5z"/><path d="m41 .5c-4.3333333 0-6.5 2.33333333-6.5 7h-34.5v11.5h82v-11.5h-35c.3333333-4.66666667-1.6666667-7-6-7z"/><path d="m41 93v-28"/><path d="m23 93 18-17 17.5 17"/></g><path d="m15.5 30.5 14 11" stroke-width="3"/><path d="m27.5 29-10.5 13.5" stroke-width="3"/></g><path d="m63.3145939 38.5203916-.134207 18.3570692 2.2882424-1.2652042-15.6182483-9.6472959c-.7048094-.4353565-1.6290964-.2169217-2.0644529.4878877-.4353564.7048094-.2169216 1.6290964.4878878 2.0644529l15.6182484 9.6472959c.9951533.6147001 2.2796911-.0955405 2.2882424-1.2652042l.134207-18.3570692c.0060564-.828405-.6605888-1.5048696-1.4889938-1.510926s-1.5048696.6605888-1.510926 1.4889938zm-37.0122097 6.2565869c10.8707574-13.0689065 20.8147995-11.9573975 29.4727269-.9345084l-.1330756-.200725 7.2417304 13.0973598c.4008562.7249868 1.3135323.9877464 2.038519.5868902.7249868-.4008563.9877465-1.3135323.5868902-2.0385191l-7.2417304-13.0973598c-.0389069-.0703669-.0834088-.1374916-.1330756-.2007251-9.7588132-12.424488-21.9474688-13.7868918-34.1383835.8691178-.5297707.6368944-.4429299 1.5826633.1939645 2.1124341.6368944.5297707 1.5826634.4429299 2.1124341-.1939645z" fill="#000" fill-rule="nonzero" transform="matrix(1 0 0 -1 0 90.658668)"/></g></svg>

<?xml version="1.0" encoding="UTF-8"?>
<svg width="86px" height="97px" viewBox="0 0 86 97" version="1.1" xmlns="http://www.w3.org/2000/svg" xmlns:xlink="http://www.w3.org/1999/xlink">
    <!-- Generator: Sketch 51.1 (57501) - http://www.bohemiancoding.com/sketch -->
    <title>mapper1</title>
    <desc>Created with Sketch.</desc>
    <defs></defs>
    <g id="Page-1" stroke="none" stroke-width="1" fill="none" fill-rule="evenodd">
        <g id="mapper1" transform="translate(2.000000, 2.000000)">
            <g id="Group-5" stroke-linecap="round" stroke-linejoin="round" stroke="#000000" stroke-width="4">
                <polygon id="Path-7" points="5 19 5 64.5 76.5 64.5 76.5 19"></polygon>
                <path d="M41,0.5 C36.6666667,0.5 34.5,2.83333333 34.5,7.5 L0,7.5 L0,19 L82,19 L82,7.5 L47,7.5 C47.3333333,2.83333333 45.3333333,0.5 41,0.5 Z" id="Path-9"></path>
                <path d="M41,93 L41,65" id="Path-10"></path>
                <polyline id="Path-11" points="23 93 41 76 58.5 93"></polyline>
            </g>
            <path d="M15.5,30.5 L29.5,41.5" id="Line-4" stroke="#000000" stroke-width="3" stroke-linecap="round" stroke-linejoin="round"></path>
            <path d="M27.5,29 L17,42.5" id="Path-12" stroke="#000000" stroke-width="3" stroke-linecap="round" stroke-linejoin="round"></path>
            <path d="M63.3145939,38.5203916 L63.1803869,56.8774608 L65.4686293,55.6122566 L49.850381,45.9649607 C49.1455716,45.5296042 48.2212846,45.748039 47.7859281,46.4528484 C47.3505717,47.1576578 47.5690065,48.0819448 48.2738159,48.5173013 L63.8920643,58.1645972 C64.8872176,58.7792973 66.1717554,58.0690567 66.1803067,56.899393 L66.3145137,38.5423238 C66.3205701,37.7139188 65.6539249,37.0374542 64.8255199,37.0313978 C63.9971149,37.0253414 63.3206503,37.6919866 63.3145939,38.5203916 Z M26.3023842,44.7769785 C37.1731416,31.708072 47.1171837,32.819581 55.7751111,43.8424701 L55.6420355,43.6417451 L62.8837659,56.7391049 C63.2846221,57.4640917 64.1972982,57.7268513 64.9222849,57.3259951 C65.6472717,56.9251388 65.9100314,56.0124628 65.5091751,55.287476 L58.2674447,42.1901162 C58.2285378,42.1197493 58.1840359,42.0526246 58.1343691,41.9893911 C48.3755559,29.5649031 36.1869003,28.2024993 23.9959856,42.8585089 C23.4662149,43.4954033 23.5530557,44.4411722 24.1899501,44.970943 C24.8268445,45.5007137 25.7726135,45.4138729 26.3023842,44.7769785 Z" id="Path-13" fill="#000000" fill-rule="nonzero" transform="translate(44.981851, 45.329334) scale(1, -1) translate(-44.981851, -45.329334) "></path>
        </g>
    </g>
</svg>
